X:1
T:Da bei rami
T:Da bei rami
T:Philippe de Monte
T:Source: Musica divina---Anversa---P/Phalesio & G.Bellero---1583. Editor: André Vierendeels (16/12/13).
C:Philippe de Monte
%%score [ 1 2 3 4 ]
L:1/8
Q:1/4=120
M:4/4
K:C
V:1 treble nm="Canto" snm="C"
V:2 treble nm="Alto" snm="A"
V:3 treble-8 nm="Tenor" snm="T"
V:4 bass nm="Basso" snm="B"
V:1
 c8 |: c4 c4 | d4 d4 | e8 | d4 z2 d2- | d2 d2 e4 | c4 d4 | B4 B4 | z2 c2 c2 B2 | A4 A4 | G4 G4 | %11
w: Da|bei ra-|mi scen-|de-|a dol-|* ce nel-|la me-|mo- ria|u- na piog-|gia de|fior sour'|
w: |el- la|si fe-|de-|a hu-|* mil in|tan- ta|glo- ria|co- per- ta|gia de|l'a- mo-|
 G3 F G2 A2- | AG G4 F2 | G8 |1 z4 c4 :|2 G8- || G8 | z4 z2 G2 | G4 G4 | F2 E2 D4 | C4 z2 C2 | %21
w: al _ _ suo|_ _ grem- *|bo,|et|bo,|_|qual|fior ca-|dea sul lem-|bo, qual|
w: ro- * * so|_ _ nem- *|bo,||||||||
 G4 G4 | A4 G4 | A3 B c4 | B4 z2 d2- | d2 e4 d2 | c4 A4 | B2 B2 z2 d2- | d2 e4 d2 | c4 A4 | %30
w: su le|trec- cie|bion- * *|de, ch'o-|* ro for-|bi- to'e|per- le e-|* ran quel|d'ia ve-|
w: |||||||||
 B2 B2 z2 G2 | G4 E4 | F4 G4 | A8 | D4 G4- | G2 G2 F4 | E3 D E2 F2- | F2 E4 D2 | E8 | z4 E4 | %40
w: der- le, qual|so po-|sa- va'in|ter-|ra e|_ qual su|l'on- * * *||de,|qual|
w: ||||||||||
 G4 A4 | G3 A B2 c2- | cB A3 G GF | A8 | z4 A4 | A4 B4 | c4 A4 | B8 | B8 | c8 | c8 | d6 c2 | %52
w: con un|va- * go'er- ro-||re,|gi-|ran- do|pa- rea|dir|qui|re-|gn'a-|mo- *|
w: ||||||||||||
 d4 e4- | e2 d2 c4- | c2 BA B4 | c8 | z4 c4 | d4 e4 | f4 d4 | e8 | e8 | d6 c2 | d4 e4- | %63
w: |||re,|gi-|ran- do|pa- rea|dir|qui|re- *||
w: |||||||||||
 e2 d2 c4- | c4 B4 | A8- | A8 | G8- | G8- | G8 |] %70
w: |* gn'a-|mo-||re,|_||
w: |||||||
V:2
 G8 |: A4 A4 | B4 B4 | c8 | B4 z2 B2- | B2 B2 B4 | A4 A4 | G4 G2 G2 | G2 G2 G2 G2 | E4 F4 | %10
w: Da|bei ra-|mi scen-|de-|a dol-|* ce nel-|la me-|mo- ria, u-|na piog- gia de|fior sour'|
w: |el- la|si fe-|de-|a hu-|* mil in|tan- ta|glo- ria, co-|per- ta gia de|l'a- mo-|
 E4 E2 D2- | D2 E4 F2 | G4 C4 | D8 |1 E4 z2 G2 :|2 D8 || E2 G2 G2 G2 | F2 E2 D4 | E2 E2 E2 D2 | %19
w: al suo grem-|* bo, sour'|al suo|grem-|bo, et|nem-|bo, qual fior ca-|dea sul lem-|bo, qual fior ca-|
w: ro- so, de|_ l'a- mo-|ro- so|nem-|bo *|||||
 D2 C4 B,2 | C2 E2 C2 C2 | E2 E2 D3 E | F2 F2 E2 E2 | F2 C2 CD EF | G4 z2 B2- | B2 c4 B2 | A4 F4 | %27
w: dea sul lem-|bo, qual su le|trec- cie bion- *|de, qual su le|trec- cie bion- * * *|de, ch'o-|* ro for-|bi- to'e|
w: ||||||||
 G2 G2 z2 B2- | B2 c4 B2 | A4 F4 | G2 G2 z2 E2 | E4 C4 | A,4 B,4 | C8 | B,4 C3 D | E2 C2 D4 | %36
w: per- le e-|* ran quel|di'a ve-|der- le, qual|so po-|sa- va'in|ter-|ra e _|qual su l'on-|
w: |||||||||
 G,4 z2 D2 | B,2 C4 B,A, | G,2 B,2 C2 B,2- | B,2 E4 C2 | D2 E4 D2 | E2 E2 D2 C2- | CD E2 F2 D2- | %43
w: de, e|qual su l'on _|de, qual con un|_ va- go'er-|ro- * *|re, qual con un|_ _ _ va- go'er|
w: |||||||
 D2 CB, C4 | D4 F4 | F2 A4 G2- | G2 FE F4 | G8 | G8 | G8 | A8 | B8- | B4 G4 | A8 | G8- | G8 | %56
w: _ _ _ ro-|re, gi-|ran- do pa-|* * * rea|dir|qui|re-|gn'a-|mo-|||re,|_|
w: |||||||||||||
 z4 G4 | B4 c4 | c4 B4 | c8 | c8 | B8- | B4 G4 | A4 F4 | G8 | E8 | F8- | F4 E4 | D8 | E8 |] %70
w: gi-|ran- do|pa- rea|dir|qui|re-|* gn'a-|mo- *|re,|qui|re-|* gn'a-|mo-|re.|
w: ||||||||||||||
V:3
 e8 |: f4 e4 | g4 g4 | g8 | g4 z2 g2- | g2 g2 g4 | e4 f4 | d4 d2 d2 | e2 e2 d2 d2 | c4 d4 | %10
w: Da|bei ra-|mi scen-|de-|a dol-|* ce nel-|la me-|mo- ria, u-|na piog- gia de|fior sour'|
w: |el- la|si fe-|de-|a hu-|* mil in|tan- ta|glo- ria, co-|per- ta gia de|l'a- mo-|
 B2 c2 G4- | G2 C2 z2 c2 | d2 e3 d c2- | c2 BA B4 |1 c4 z2 e2 :|2 c2 BA B4 || c2 e2 e2 d2 | %17
w: al suo grem-|* bo, al|suo grem- * *||bo, et|(nem)- * * *|bo, qual fior ca-|
w: ro- so nem-|* bo l'a-|mo- ro- so nem-||bo, *|||
 d2 c4 B2 | c2 c2 c2 G2 | _B2 c2 G4 | G2 G2 A4 | B2 c4 B2 | c2 d2 B2 c2- | c2 f2 e2 c2 | %24
w: dea sul lem-|bo, qual fior ca-|dea sul lem-|bo, qual su|le trec- cie|bion- * de, su|_ le trec- cie|
w: |||||||
 e2 d2 z2 g2- | g2 g4 g2 | e4 d4 | d2 d2 z2 g2- | g2 g4 g2 | e4 d4 | d2 d2 z2 c2 | c4 G2 A2- | %32
w: bion- de, ch'o-|* ro for-|bi- to'e|per- le e-|* ran quel|di'a ve-|der- le, qual|so po- sa-|
w: ||||||||
 AG FE D4 | E4 F4 | G2 d2 e3 d | cB c4 B2 | c4 A4 | G2 G2 A4 | B2 G2 A2 G2- | GA B2 c2 A2 | %40
w: |va'in ter-|ra, e qual _|_ _ su l'on-|de, e|qual su l'on-|de, qual con un|_ _ _ va- go'er-|
w: ||||||||
 B2 c4 BA | B2 B4 e2- | e2 A2 d3 e | f4 e4 | f4 d4 | c2 f2 d2 e2- | ed cB c4 | d8 | d8 | e8 | e8 | %51
w: ro- * * *|re, qual con|_ un va- *|go'er- ro-|re, gi-|ran- do pa- rea|_ _ _ _ _|dir|qui|re-|gn'a-|
w: |||||||||||
 g8 | g6 f2 | e4 f4 | d8 | c8 | z4 e4 | g4 g4 | a4 g4 | g4 g4 | g8 | g4 g4- | g2 f2 e2 d2 | c4 c4 | %64
w: mo-||||re,|gi-|ran- do|pa- rea|dir qui|re-|gn'a- mo-||re, qui|
w: |||||||||||||
 d4 e4- | e4 c4- | c4 d4- | d2 c2 c4- | c4 B4 | c8 |] %70
w: re- gn'a-|* mo-||||re.|
w: ||||||
V:4
 C8 |: F,4 A,4 | G,4 G,4 | C,8 | G,4 z2 G,2- | G,2 G,2 E,4 | A,4 D,4 | G,4 G,2 G,2 | %8
w: Da|bei ra-|mi scen-|de-|a dol-|* ce nel-|la me-|mo- ria, u-|
w: |el- la|si fe-|de-|a hu-|* mil in|tan- ta|glo- ria, co-|
"^#" E,2 C,2 G,2 G,2 | A,4 D,4 | E,2 C,D, E,F, G,A, | B,2 C4 A,2 | B,2 C2 A,4 | G,8 |1 %14
w: na piog- gia de|fior sour'|al suo _ _ _ _ _|_ grem- *|||
w: per- ta gia de|l'a- mo-|ro- so _ _ _ _ _|_ nem- *|||
 C,4 z2 C2 :|2 G,8 || C,2 C2 C2 G,2 |"^b" B,2 C2 G,4 | C,4 z4 | F,,,8 | C,4 F,2 F,2 | E,2 C,2 G,4 | %22
w: bo, et|(nem)-|bo, qual fior ca-|dea sul lem-|bo,||qual su le|trec- cie bion-|
w: bo, *||||||||
 F,2 D,2 E,2 C,2 | F,3 G, A,4 | G,4 z2 G,2- | G,2 C4 G,2 | A,4 D,4 | G,2 G,2 z2 G,2- | G,2 C4 G,2 | %29
w: de, qual su le|trec- cie bion-|de, ch'o-|* ro for-|bi- to'e|per- le e-|* ran quel|
w: |||||||
 A,4 D,4 | G,2 G,2 z2 C,2 | C,4 C,4 | D,4 B,,4 | A,,8 | G,,4 z2 C,2 | C,2 E,2 D,4 | C,6 D,2 | %37
w: di'a ve-|der- le, qual|so po-|sa- va'in|ter-|ra, e|quel su l'on-|de, e|
w: ||||||||
 E,2 E,2 F,4 | E,4 z2 E,2 | G,4 A,4 | G,2 E,2 F,4 | E,3 F, G,2 A,2- | A,2 C2 _B,4 | A,8 | %44
w: qual su l'on-|de, qual|con un|va- go'er- ro-||||
w: |||||||
 D,4 z2 D,2 | F,4 G,4 | A,4 A,4 | G,8 | G,8 | C8 | A,8 | G,6 A,2 | B,4 C4- | C4 F,4 | G,8 | C,8 | %56
w: re, gi-|ran- do|pa- rea|dir|qui|re-|gn'a|mo- *||||re,|
w: ||||||||||||
 z4 C4 | G,4 C4 | F,4 G,4 | C,8 | C,8 | G,6 A,2 | B,4 C4 | A,8 | G,4 G,4 | A,8 | F,8 | G,8- | G,8 | %69
w: gi-|ran- do|pa- rea|dir|qui|re- *|* gn'a-|mo-|re, qui|re-|gn'a-|mo-||
w: |||||||||||||
 C,8 |] %70
w: re.|
w: |

